X: 29770
T: O Son Do Ar
R: waltz
M: 3/4
K: Eminor
EF|"Em"G>FG "D"A>GA|"G"B>AG "Em"E>GB|"D"d>ed "A"^c>dc|"Bm"^c>BA B>EF|
"Em"G>FG "D"A>GA|"G"B>AG "Em"E>GA|"C"G>FE "D"D>EF|"Em"E3- E EF|
"Em"G>FG "D"A>GA|"G"B>AG "Em"E>GB|"D"d>ed "A"^cdc|"Bm"^c>BA BEF|
"Em"G>FG "D"A>GA|"G"B>AG "Em"E>GA|"C"GFE "D"DEF|E3- "Em"E B/A/G/F/||
|:"Em"E2F "D"D2F|"Em"E>FG "D"A>GF|"Em"E2F "D"D2F|"Em"F>E"D"D "Em"E B/A/G/F/|
"Em"E2F "D"D2F|"Em"E>FG "D"A>GF|"Em"G>FE "D"F>ED|1 "Em"E3- E B/A/G/F/:|2 "Em"E3- E EF||

